X: 28285
T: Mrs. Norman MacKeigan
R: reel
M: 4/4
K: Dmajor
FE|:D2 FD FA~A2|defd g2 fe|dcBA BcdA|(3Bcd AF E2 FE|
D2 FD FA~A2|defd g2 fe|dcBA BcdA|1 (3Bcd AF D2 FE:|2 (3Bcd AF ~D3 f||
abaf defd|fada f2 ef|abaf defd|fadf ~e3 f|
abaf defd|fada f2 ec|dcBA BcdA|1 (3Bcd AF D2 fg:|2 (3Bcd AF D2 FE||

